X: 7
T: The Fairies Revels
R: jig
B: Bland & Weller, eds. "24 Favorite Country Dances, Hornpipes and Reels", 1803, London p.4 #7
S: http://imslp.org/wiki/24_Favorite_Country_Dances,_Hornpipes_and_Reels_(Various)
M: 6/8
L: 1/8
Z: 2012 John Chambers <jc:trillian.mit.edu>
K: G
g |\
dBG G2B | AFD D2g | dBG G2B | cde efg |
dBG G2B | AFD D2D | EFG FGE | D3 D2 :||: c2 |
Bcd d2c/B/ | cde e2c/B/ | ABc c2B/A/ | Bcd d2g |
dBG G2B | AFD D2D | EFG FEF | G3 G2 :|
%%begintext align
%% Cast off Couples & up again .|
%% Change Sides & back again :|
%% down the middle up again :|.
%% hands 6 round .
%%endtext

%%sep 1 1 500
%%sep 1 1 500
